X:671
T:Rory Dall's Sister's Lament
D:Ossian, Borders (1984)
Z:Nigel Gatherer
M:3/4
L:1/8
K:Ador
A3 BAB | G3 ABd | e2 E4 | ed Bd ef | g2 G4 |
g3 a b/a/g | e2 de gd | e2 d2 B2 | ge de g2 |
ed Bd eg | G3 ABd | B3 A3 :|
G3 EFG | A3 FGA | B3 AGA | B3 d B/A/G |
A2 AG AB | e3 dBA | G3 A B/A/G | G2 F2 ED | 
D3 EFG | G3 A B/A/G | E2 ED EF | E>g ed B/d/e/f/ |
ge de g2 | edBd eg | G3 ABd | B4 A2 |]
<end>
<start>
